X: 36975
T: Shuter's
R: hornpipe
M: 4/4
K: Gmajor
|:G2 G2 GABc|dcBA GABG|A2 A2 A2 ed|cBAG FAFD|
G2 G2 GABc|dcBA G2 g2|fafd ege^c|d2 d2 d2 z2:|
|:A2 A2 A2 (3Bdc|dBAG FAFD|d2 d2 d2 ef|gedc BdBG|
e2 c2 c2 ge|d2 B2 B2 g2|ecec BAGF|G2 G2 G2 z2:|

